src/images/logo.svg

<svg width="60" height="60" viewBox="0 0 60 60" fill="none" xmlns="http://www.w3.org/2000/svg">
<path fill-rule="evenodd" clip-rule="evenodd" d="M30 57C44.9117 57 57 44.9117 57 30C57 15.0883 44.9117 3 30 3C15.0883 3 3 15.0883 3 30C3 44.9117 15.0883 57 30 57ZM30 60C46.5685 60 60 46.5685 60 30C60 13.4315 46.5685 0 30 0C13.4315 0 0 13.4315 0 30C0 46.5685 13.4315 60 30 60ZM32 12V40H28V12H32ZM32 48V44H28V48H32Z" fill="#FF1212"/>
</svg>

<svg width="60" height="60" fill="none" xmlns="http://www.w3.org/2000/svg"><path fill-rule="evenodd" clip-rule="evenodd" d="M30 59c16.016 0 29-12.984 29-29S46.016 1 30 1 1 13.984 1 30s12.984 29 29 29zm0 1c16.569 0 30-13.431 30-30C60 13.431 46.569 0 30 0 13.431 0 0 13.431 0 30c0 16.569 13.431 30 30 30zm2-48v28h-4V12h4zm0 36v-4h-4v4h4z" fill="#FF1212"/></svg>
